!! 00000] TT[WS
!!!OTL: NÅzi buhuijia
!!!ARE: Asia, China, Shanxi Linxian
!! Ethnic Group: Han
!! WII, 163 (1)
!!!SCT: J0647
!!!YEM: Copyright 1995, estate of Helmut Schaffrath.
**kern
*ICvox
*Ivox
*M2/4
*k[f#]
*G:
{8.dd
16cc
8dd
8ee
=1
8dd
8cc
8.a
16b
=2
8dd
16b
16cc
8dd
8ee
=3
4.g
8a}
=4
{8dd
16dd
16cc
8a
16a
16dd
=5
8a
16g
16e
8.d
16e
=6
8a
16a
16g
8e
16e
16g
=7
2d}
==
!!!AGN: Xiaodiao. Qingge, Aisu
!!!ONB: ESAC (Essen Associative Code) Database: CHINA
!!!AMT: simple duple
!!!AIN: vox
!!!EED: Helmut Schaffrath
!!!EEV: 1.0
*-
